X:1
T:Pretty Peg
L:1/8
M:4/4
K:D
V:1
A2 |:[M:4/4] d2 fd AF DF | d2 fd e/f/g fe | d2 fd AF DF |1 G/F/E FD CE EA :|2 G/F/E FD CE EG || 
F/E/D AD BD AD | F/E/D AD G,B, DG | F/E/D AD BD AD | GF ED A,C EG | 
F/E/D dD cD BD | AD G/F/E/D/ CE EG | FA df ec dB | AF GE FD D2 |] 


